icons/send-plane-line.svg

<svg viewBox="0 0 24 24" fill="currentColor" xmlns="http://www.w3.org/2000/svg">
    <path d="M21.7267 2.95694L16.2734 22.0432C16.1225 22.5716 15.7979 22.5956 15.5563 22.1126L11 13L1.9229 9.36919C1.41322 9.16532 1.41953 8.86022 1.95695 8.68108L21.0432 2.31901C21.5716 2.14285 21.8747 2.43866 21.7267 2.95694ZM19.0353 5.09647L6.81221 9.17085L12.4488 11.4255L15.4895 17.5068L19.0353 5.09647Z"/>
</svg>

<svg xmlns="http://www.w3.org/2000/svg" viewBox="0 0 24 24">
    <g>
        <path fill="none" d="M0 0h24v24H0z"/>
        <path d="M1.923 9.37c-.51-.205-.504-.51.034-.689l19.086-6.362c.529-.176.832.12.684.638l-5.454 19.086c-.15.529-.475.553-.717.07L11 13 1.923 9.37zm4.89-.2l5.636 2.255 3.04 6.082 3.546-12.41L6.812 9.17z"/>
    </g>
</svg>
